X:7
T:Master Crowley's
C:Trad.
D:"Cooley", track 5b
R:reel
Z:Played on D/D# accordion
M:4/4
K:Edor
~f2ed edBc|dB{c}BA BAFA|~B2AF AFDF|GEFD EDB,B,|
f4 ge~e2|dBcA BAFA|BcdB AGFD|EFGE FD~D2|
f~d3 e~c3|dB{c}BA BAFA|~B2AF AFDF|GEFD EDB,B,|
f~d3 e~c3|dBcA BAFA|BcdB AGFD|EFGE FD~D2|
fAdc dAFA|BGdB AGFA|BdAd GdFd|EFGE FDD2|
d2dc dAFA|BGdB AGFA|BdAd GdFd|EFGE FDD2|
